svg/mono-logo.svg

<svg xmlns="http://www.w3.org/2000/svg" width="170" height="40" viewBox="0 0 170 40">
  <g id="Page-1" fill="none" fill-rule="evenodd">
    <path id="mono-logo" fill="#000F1E" d="M66,0 C54.7478232,0 46,8.97208167 46,20 C46,31.0279183 54.7478232,40 66,40 C76.2521768,40 85,31.0279183 85,20 C85,8.97208167 76.2521768,0 66,0 L66,0 Z M66,34 C58.0561407,34 52,27.7196129 52,20 C52,12.2803871 58.0561407,6 66,6 C72.9438593,6 79,12.2803871 79,20 C79,27.7196129 72.9438593,34 66,34 Z M151,0 C161.252177,0 170,8.97208167 170,20 C170,31.0279183 161.252177,40 151,40 C139.747823,40 131,31.0279183 131,20 C131,8.97208167 139.747823,0 151,0 Z M151,34 C143.056141,34 137,27.7196129 137,20 C137,12.2803871 143.056141,6 151,6 C157.943859,6 164,12.2803871 164,20 C164,27.7196129 157.943859,34 151,34 Z M16,1 L22,1 L22,26 L16,26 L16,1 Z M31,1 L37,1 L37,38 L31,38 L31,1 Z M0,1 L6,1 L6,38 L0,38 L0,1 Z M95,38 L95,1 L123,1 L123,38 L117,38 L117,7 L101,7 L101,38 L95,38 Z"/>
  </g>
</svg>

<svg xmlns="http://www.w3.org/2000/svg" width="170" height="40"><path fill="#000F1E" d="M66 0C54.748 0 46 8.972 46 20s8.748 20 20 20c10.252 0 19-8.972 19-20S76.252 0 66 0zm0 34c-7.944 0-14-6.28-14-14S58.056 6 66 6c6.944 0 13 6.28 13 14s-6.056 14-13 14zm85-34c10.252 0 19 8.972 19 20s-8.748 20-19 20c-11.252 0-20-8.972-20-20s8.748-20 20-20zm0 34c-7.944 0-14-6.28-14-14s6.056-14 14-14c6.944 0 13 6.28 13 14s-6.056 14-13 14zM16 1h6v25h-6V1zm15 0h6v37h-6V1zM0 1h6v37H0V1zm95 37V1h28v37h-6V7h-16v31h-6z" fill-rule="evenodd"/></svg>
